X: 7849
T:Sonderh\o{}ning I
R:Sonderh\o{}ning
Q:1/4=92
M:2/4
L:1/8
O:Denmark
A:Fan\o{}
K:D
Ad d/d/d| de f/f/f| df a/a/a| ge f2:|\
af/f/ fd| df e2|
ge/e/ cd| e2 e2| \
af/f/ fd| df e2| ge/e/ cA| d2 dz|]
